X:1
T:Preambulum
T:Preambulum
T:Frescobaldi
C:Frescobaldi
%%score { ( 1 2 ) | ( 3 4 ) }
L:1/8
Q:1/4=56
M:4/4
K:F
V:1 treble nm="Piano" snm="Pno."
V:2 treble 
V:3 bass 
V:4 bass 
V:1
 G4 G2 A2 | B2 cB ABGA | ^FDEF GABG | ABcA dcBA | B4 c4 | c2 B2 A2 B2 | G2 A2- AF B2- | %7
 BG c2- cdBc | AdAc =B4 | c3 B A4 | z FBA G3 F | _EFGA ^FD- G2- | G2 ^F2 !fermata!G4 |] %13
V:2
 D4 D2 D2 | G2 x6 | x8 | x8 | D4 G4 | A2 G2 ^F2 G2 | E2 F2- FD G2- | GE A4 G2 | G2 ^F2 G4 | %9
 z G E2 z CF_E | D4 DB,/C/ D2 | CD _E2 x2 D2- | D2 DC [=B,D]4 |] %13
V:3
 B,4 B,2 A,2 | G,8 | A,4 G,4 | G,4 ^F,4 | G,,2 G,F, _E,F,D,E, | C,D,_E,C, D,C,B,,G,, | %6
 C,B,,A,,F,, B,,3 G,, | C,3 A,, D,4 | D,,4 D,G,D,F, | E,4 F,4- | F,4 G,4- | G,2 C4 B,C/B,/ | %12
 A,G, A,2 G,4 |] %13
V:4
 G,4 G,2 F,2 | _E,8 | D,4 B,,4 | A,,8 | x8 | x8 | x8 | x8 | x4 G,,4 | C,4 F,,4 | B,,4 _E,2 =B,,2 | %11
 C,4 D,4- | D,4 z D, !fermata!G,,2 |] %13

